build/img/logos/rqc.svg

<svg width="768px" height="198px" enable-background="new 0 0 768 198" version="1.1" viewBox="0 0 768 198" xml:space="preserve" xmlns="http://www.w3.org/2000/svg">
<path d="m35.92 177.64c0 7.632-6.188 13.819-13.82 13.819s-13.82-6.188-13.82-13.819v-157.3c0-7.632 6.188-13.82 13.82-13.82h30.905c5.304 0 9.91 2.989 12.227 7.374l45.018 71.249 45.584-72.145c2.617-4.156 7.088-6.434 11.661-6.438v-.04h30.905c7.633 0 13.82 6.188 13.82 13.82v157.3c0 7.632-6.188 13.819-13.82 13.819h-10.299l-.025.086-6.673-.001-.018-.085h-6.883l-5.123-.001h-1.761c-.118-.001-.236-.004-.354-.007-.117-.005-.234-.011-.352-.018-7.234-.439-12.966-6.449-12.966-13.794-.017-1.611-.188-4.835-.185-6.552v-62.017c0-7.633 6.188-13.82 13.82-13.82h16.968l.032-.085v-61.005h-9.518l-53.039 83.941c-1.073 1.769-2.563 3.321-4.432 4.498-6.44 4.056-14.948 2.122-19.003-4.318l-53.151-84.121h-9.518z" style="display:none;fill:#58595b"/>
<path d="m326.88 171.09v-62.017c0-7.633 6.188-13.82 13.819-13.82h16.968l.032-.085v-60.796c-.066 0-.132.001-.199 0l-6.869-.103-73.687 148.67c-2.06 5.049-7.014 8.609-12.799 8.609h-29.742c-7.633 0-13.82-6.195-13.82-13.837v-157.35c0-7.642 6.188-13.836 13.82-13.836s13.82 6.195 13.82 13.836v143.52h7.39l74.16-149.62c2.162-4.386 6.34-7.112 10.861-7.613l-.021-.076v-.04h30.905c7.632 0 13.82 6.188 13.82 13.82v157.3c0 7.632-6.188 13.819-13.82 13.819h-10.302l-.025.086-6.672-.001-.018-.085-13.767-.001c-7.563-.077-13.595-6.251-13.671-13.818-.016-1.61-.187-4.833-.183-6.55z" style="display:none;fill:#58595b"/>
<path d="m440.99 191.2c-7.633 0-13.82-6.209-13.82-13.867 0-7.659 6.188-13.867 13.82-13.867h49.393v-66.016h-49.393c-7.633 0-13.82-6.188-13.82-13.82s6.188-13.82 13.82-13.82h80.828v-35.901h-80.828c-7.633 0-13.82-6.208-13.82-13.867s6.188-13.867 13.82-13.867h94.648c7.632 0 13.82 6.208 13.82 13.867v157.29c0 7.658-6.188 13.867-13.82 13.867zm-32.795-93.75c7.631 0 13.82-6.188 13.82-13.82s-6.189-13.82-13.82-13.82c-7.632 0-13.82 6.188-13.82 13.82s6.188 13.82 13.82 13.82zm0 93.75c7.631 0 13.82-6.189 13.82-13.82 0-7.632-6.189-13.82-13.82-13.82-7.632 0-13.82 6.188-13.82 13.82 0 7.631 6.188 13.82 13.82 13.82zm0-157.38c7.631 0 13.82-6.188 13.82-13.82s-6.189-13.82-13.82-13.82c-7.632 0-13.82 6.189-13.82 13.82s6.188 13.82 13.82 13.82z" style="display:none;fill:#ffcb05"/>
<path d="m704.15 171.09v-62.017c0-7.633 6.188-13.82 13.82-13.82h16.968l.032-.085v-61.006h-9.518l-53.038 83.941c-1.074 1.769-2.563 3.321-4.433 4.498-6.439 4.056-14.948 2.122-19.002-4.318l-53.152-84.121h-9.518v143.48c0 7.632-6.188 13.819-13.819 13.819-7.633 0-13.82-6.188-13.82-13.819v-157.3c0-7.632 6.188-13.82 13.82-13.82h30.904c5.305 0 9.91 2.989 12.227 7.374l45.019 71.249 45.584-72.145c2.616-4.156 7.088-6.434 11.661-6.438v-.04h30.904c7.633 0 13.82 6.188 13.82 13.82v157.3c0 7.632-6.188 13.819-13.82 13.819h-10.302l-.024.086-6.673-.001-.019-.085-13.767-.001c-7.563-.077-13.595-6.251-13.671-13.818-.015-1.611-.186-4.834-.183-6.551z" style="display:none;fill:#58595b"/>
<g transform="matrix(4.316 0 0 3.6236 6.429 -.098842)" style="fill:none"><g id="Index_Desktops_rus" transform="translate(-165,-35)" style="stroke-width:.25286"><g id="RQClogo_white_rus" transform="translate(165,35)" style="stroke-width:.25286"><g id="Group" transform="translate(52,10)" style="fill:#040403;stroke-width:.25286"><path id="Shape" d="m14.7 9.3c0 5.7-2.8 8.8-8 8.8h-4.2v10.6h-2.5v-27.9h6.7c5.2 0 8 3.1 8 8.5zm-2.5 0c0-4.1-1.8-6.2-5.5-6.2h-4.2v12.6h4.2c3.8 0 5.5-1.9 5.5-6.4z" style="stroke-width:.25286"/><polygon points="22.8 10.8 29.9 .8 33 .8 24.1 13 34.1 28.7 31.2 28.7 22.5 15.1 20.5 17.8 20.5 28.7 18 28.7 18 .8 20.5 .8 20.5 14.1" style="stroke-width:.25286"/><polygon points="51.5 .8 51.5 26.4 54 26.4 54 33.3 51.6 33.3 51.6 28.7 51.5 28.7 36.8 28.7 36.8 .8 39.3 .8 39.3 26.4 49 26.4 49 .8" style="stroke-width:.25286"/></g><g transform="translate(130,10)" style="fill:#040403;stroke-width:.25286"><path d="m3.8 2.7c0 1.3-.7 2.1-2 2.1h-.8v2.2h-.9v-6.4h1.7c1.3.1 2 .8 2 2.1zm-1 0c0-.8-.3-1.2-1-1.2h-.8v2.5h.8c.7 0 1-.4 1-1.3z" style="stroke-width:.25286"/><path d="m4.5 5.4v-1.4c0-1.2.6-1.8 1.7-1.8s1.7.6 1.7 1.8v1.4c0 1.2-.6 1.8-1.7 1.8-1 0-1.7-.7-1.7-1.8zm2.5 0v-1.4c0-.7-.3-1-.8-1s-.8.3-.8 1v1.4c0 .7.3 1 .8 1 .5-.1.8-.4.8-1z" style="stroke-width:.25286"/><path d="m9 5.4v-1.5c0-1.1.6-1.8 1.6-1.8 1.1 0 1.7.6 1.7 1.8h-.9c0-.6-.3-.9-.8-.9s-.7.3-.7.9v1.5c0 .6.3.9.7.9.5 0 .8-.3.8-.9h.9c0 1.1-.7 1.8-1.7 1.8s-1.6-.7-1.6-1.8z" style="stroke-width:.25286"/><path d="m13.2 5.4v-1.5c0-1.1.6-1.8 1.6-1.8 1.1 0 1.7.6 1.7 1.8h-.9c0-.6-.3-.9-.8-.9s-.7.3-.7.9v1.5c0 .6.3.9.7.9.5 0 .8-.3.8-.9h.9c0 1.1-.7 1.8-1.7 1.8s-1.6-.7-1.6-1.8z" style="stroke-width:.25286"/><path d="m17.5 2.3h.9v2 1.3c.1-.2.3-1 .5-1.4l.9-2h.9v4.8h-.9v-1.8-1.6c0 .2-.3 1.1-.5 1.5l-.9 1.9h-.9z" style="stroke-width:.25286"/><path d="m22 2.3h.9v2 1.3c.1-.2.3-1 .5-1.4l.9-2h.9v4.8h-.9v-1.8-1.6c0 .2-.3 1.1-.5 1.5l-.9 1.9h-.9zm.6-1.9h.6c0 .3.2.5.5.5s.5-.2.5-.5h.6c0 .7-.5 1.1-1.1 1.1-.7 0-1.1-.4-1.1-1.1z" style="stroke-width:.25286"/><path d="m26.4 5.4v-1.5c0-1.1.6-1.8 1.6-1.8 1.1 0 1.7.6 1.7 1.8h-.9c0-.6-.3-.9-.8-.9s-.7.3-.7.9v1.5c0 .6.3.9.7.9.5 0 .8-.3.8-.9h.9c0 1.1-.7 1.8-1.7 1.8-.9 0-1.6-.7-1.6-1.8z" style="stroke-width:.25286"/><polygon points="32.3 3.3 33.1 2.1 34.2 2.1 32.7 4.2 34.4 7 33.4 7 32 5 31.7 5.3 31.7 7 30.8 7 30.8 2.2 31.7 2.2 31.7 4.2" style="stroke-width:.25286"/><path d="m35 2.3h.9v2 1.3c.1-.2.3-1 .5-1.4l.9-2h.9v4.8h-.9v-1.8-1.6c0 .2-.3 1.1-.5 1.5l-.9 1.9h-.9z" style="stroke-width:.25286"/><path d="m39.5 2.3h.9v2 1.3c.1-.2.3-1 .5-1.4l.9-2h.9v4.8h-.9v-1.8-1.6c0 .2-.3 1.1-.5 1.5l-.9 1.9h-.9zm.5-1.9h.6c0 .3.2.5.5.5s.5-.2.5-.5h.6c0 .7-.5 1.1-1.1 1.1s-1-.4-1.1-1.1z" style="stroke-width:.25286"/><polygon points="1.5 13.5 2.8 11.5 3.9 11.5 2.1 14.3 4.2 17.9 3 17.9 1.5 15 1.1 15.6 1.1 17.8 .2 17.8 .2 11.4 1.1 11.4 1.1 14.2" style="stroke-width:.25286"/><path d="m7.9 16.4c0 .9-.6 1.4-1.7 1.4h-1.5v-4.8h1.4c1 0 1.5.5 1.5 1.3 0 .3-.2.7-.5.9.6.2.8.7.8 1.2zm-2.4-1.5h.5c.4 0 .7-.2.7-.6s-.2-.6-.7-.6h-.5zm1.5 1.4c0-.4-.2-.7-.8-.7h-.7v1.4h.7c.6 0 .8-.2.8-.7z" style="stroke-width:.25286"/><path d="m11.9 14.6v3.2h-.7l-.1-.5c-.2.3-.5.6-1.1.6-.9 0-1.5-.6-1.5-1.5 0-1 .7-1.5 1.7-1.5h.7v-.3c0-.6-.2-.9-.7-.9-.4 0-.7.2-.7.6h-.9c0-.9.7-1.5 1.6-1.5 1.2 0 1.7.7 1.7 1.8zm-.8 1h-.7c-.5 0-.9.3-.9.7s.3.7.8.7.8-.3.8-.8z" style="stroke-width:.25286"/><polygon points="15.4 14.8 15.4 12.9 16.3 12.9 16.3 17.7 15.4 17.7 15.4 15.6 14.1 15.6 14.1 17.7 13.2 17.7 13.2 12.9 14.1 12.9 14.1 14.8" style="stroke-width:.25286"/><polygon points="17.2 13 20.3 13 20.3 13.8 19.2 13.8 19.2 17.8 18.3 17.8 18.3 13.8 17.2 13.8" style="stroke-width:.25286"/><path d="m20.9 16v-1.4c0-1.2.6-1.8 1.7-1.8s1.7.6 1.7 1.8v1.4c0 1.2-.6 1.8-1.7 1.8-1.1.1-1.7-.6-1.7-1.8zm2.5 0v-1.4c0-.7-.3-1-.8-1s-.8.3-.8 1v1.4c0 .7.3 1 .8 1s.8-.3.8-1z" style="stroke-width:.25286"/><path d="m28.6 16.4c0 .9-.6 1.4-1.7 1.4h-1.5v-4.8h1.4c1 0 1.5.5 1.5 1.3 0 .3-.2.7-.5.9.6.2.8.7.8 1.2zm-2.3-1.5h.5c.4 0 .7-.2.7-.6s-.2-.6-.7-.6h-.5zm1.5 1.4c0-.4-.2-.7-.8-.7h-.7v1.4h.7c.5 0 .8-.2.8-.7z" style="stroke-width:.25286"/><path d="m32.8 16.2c0 .9-.7 1.6-1.6 1.6h-1.6v-4.8h.9v1.7h.8c.9-.1 1.5.5 1.5 1.5zm-.9 0c0-.5-.3-.7-.8-.7h-.7v1.5h.7c.5 0 .8-.3.8-.8zm2.4-3.2v4.8h-.9v-4.8z" style="stroke-width:.25286"/><path d="m35.6 12.9h.9v2 1.3c.1-.2.3-1 .5-1.4l.9-2h.9v4.8h-.8v-1.8-1.6c0 .2-.3 1.1-.5 1.5l-.9 1.9h-.9v-4.7zm.5-1.8h.6c0 .3.2.5.5.5s.5-.2.5-.5h.6c0 .7-.5 1.1-1.1 1.1s-1.1-.4-1.1-1.1z" style="stroke-width:.25286"/><polygon points="4.3 29.4 3.4 29.4 3.4 28.4 .1 28.4 .1 22 1 22 1 27.5 2.8 27.5 2.8 22 3.7 22 3.7 27.5 4.3 27.5" style="stroke-width:.25286"/><path d="m8.5 26.9c-.1 1-.7 1.6-1.7 1.6s-1.6-.7-1.6-1.8v-1.4c0-1.1.6-1.8 1.7-1.8 1 0 1.7.6 1.7 1.8v1.1h-2.6v.4c0 .7.3 1 .8 1s.7-.2.8-.8h.9zm-2.5-1.6v.4h1.6v-.4c0-.7-.3-1-.8-1s-.8.3-.8 1z" style="stroke-width:.25286"/><polygon points="11.8 25.5 11.8 23.6 12.7 23.6 12.7 28.4 11.8 28.4 11.8 26.3 10.5 26.3 10.5 28.4 9.6 28.4 9.6 23.6 10.5 23.6 10.5 25.5" style="stroke-width:.25286"/><polygon points="13.6 23.6 16.7 23.6 16.7 24.4 15.6 24.4 15.6 28.4 14.7 28.4 14.7 24.4 13.6 24.4" style="stroke-width:.25286"/><path d="m20.8 25.4v1.3c0 1.2-.6 1.8-1.5 1.8-.3 0-.7-.1-.9-.4v1.9h-.9v-6.5h.6l.1.4c.2-.3.7-.5 1.1-.5.9.1 1.5.8 1.5 2zm-.9 0c0-.7-.3-1-.8-1s-.8.3-.8 1v1.3c0 .6.3 1 .8 1s.8-.3.8-1z" style="stroke-width:.25286"/></g><rect id="Rectangle-path" x="117.2" y="6" width="2.5" height="37.7" style="fill:#7fd2ff;stroke-width:.25286"/><g style="fill:#7fd2ff;stroke-width:.25286"><path d="m.3 33.9v-5.6l27.6 15.9v10.8l-23.3-13.5c-2.7-1.6-4.3-4.5-4.3-7.6z" style="stroke-width:.25286"/><polygon points="18.7 0 10.8 4.6 10.8 15.2 27.9 5.4" style="stroke-width:.25286"/><polygon points="20.1 38.2 26.6 42 26.6 34.4" style="stroke-width:.25286"/><polygon points=".3 10.7 .3 26.9 9.5 32.2 9.5 5.4" style="stroke-width:.25286"/><path d="m27.9 17.5v26.7l4.9-2.8c2.7-1.6 4.4-4.4 4.4-7.6v-11z" style="stroke-width:.25286"/><polygon points="37.1 10.7 29.2 6.1 20.1 11.4 37.1 21.3" style="stroke-width:.25286"/></g></g></g></g></svg>

<?xml version="1.0" encoding="UTF-8"?>
<svg width="173px" height="55px" viewBox="0 0 173 55" version="1.1" xmlns="http://www.w3.org/2000/svg" xmlns:xlink="http://www.w3.org/1999/xlink">
    <!-- Generator: Sketch 49 (51002) - http://www.bohemiancoding.com/sketch -->
    <title>RQClogo_white_rus</title>
    <desc>Created with Sketch.</desc>
    <defs></defs>
    <g id="Page-1" stroke="none" stroke-width="1" fill="none" fill-rule="evenodd">
        <g id="Index_Desktops_rus" transform="translate(-165.000000, -35.000000)" fill-rule="nonzero">
            <g id="RQClogo_white_rus" transform="translate(165.000000, 35.000000)">
                <g id="Group" transform="translate(52.000000, 10.000000)" fill="#040403">
                    <path d="M14.7,9.3 C14.7,15 11.9,18.1 6.7,18.1 L2.5,18.1 L2.5,28.7 L0,28.7 L0,0.8 L6.7,0.8 C11.9,0.8 14.7,3.9 14.7,9.3 Z M12.2,9.3 C12.2,5.2 10.4,3.1 6.7,3.1 L2.5,3.1 L2.5,15.7 L6.7,15.7 C10.5,15.7 12.2,13.8 12.2,9.3 Z" id="Shape"></path>
                    <polygon id="Shape" points="22.5 15.1 20.5 17.8 20.5 28.7 18 28.7 18 0.8 20.5 0.8 20.5 14.1 22.8 10.8 29.9 0.8 33 0.8 24.1 13 34.1 28.7 31.2 28.7"></polygon>
                    <polygon id="Shape" points="51.5 28.7 36.8 28.7 36.8 0.8 39.3 0.8 39.3 26.4 49 26.4 49 0.8 51.5 0.8 51.5 26.4 54 26.4 54 33.3 51.6 33.3 51.6 28.7"></polygon>
                </g>
                <g id="Group" transform="translate(130.000000, 10.000000)" fill="#040403">
                    <path d="M3.8,2.7 C3.8,4 3.1,4.8 1.8,4.8 L1,4.8 L1,7 L0.1,7 L0.1,0.6 L1.8,0.6 C3.1,0.7 3.8,1.4 3.8,2.7 Z M2.8,2.7 C2.8,1.9 2.5,1.5 1.8,1.5 L1,1.5 L1,4 L1.8,4 C2.5,4 2.8,3.6 2.8,2.7 Z" id="Shape"></path>
                    <path d="M4.5,5.4 L4.5,4 C4.5,2.8 5.1,2.2 6.2,2.2 C7.3,2.2 7.9,2.8 7.9,4 L7.9,5.4 C7.9,6.6 7.3,7.2 6.2,7.2 C5.2,7.2 4.5,6.5 4.5,5.4 Z M7,5.4 L7,4 C7,3.3 6.7,3 6.2,3 C5.7,3 5.4,3.3 5.4,4 L5.4,5.4 C5.4,6.1 5.7,6.4 6.2,6.4 C6.7,6.3 7,6 7,5.4 Z" id="Shape"></path>
                    <path d="M9,5.4 L9,3.9 C9,2.8 9.6,2.1 10.6,2.1 C11.7,2.1 12.3,2.7 12.3,3.9 L11.4,3.9 C11.4,3.3 11.1,3 10.6,3 C10.1,3 9.9,3.3 9.9,3.9 L9.9,5.4 C9.9,6 10.2,6.3 10.6,6.3 C11.1,6.3 11.4,6 11.4,5.4 L12.3,5.4 C12.3,6.5 11.6,7.2 10.6,7.2 C9.6,7.2 9,6.5 9,5.4 Z" id="Shape"></path>
                    <path d="M13.2,5.4 L13.2,3.9 C13.2,2.8 13.8,2.1 14.8,2.1 C15.9,2.1 16.5,2.7 16.5,3.9 L15.6,3.9 C15.6,3.3 15.3,3 14.8,3 C14.3,3 14.1,3.3 14.1,3.9 L14.1,5.4 C14.1,6 14.4,6.3 14.8,6.3 C15.3,6.3 15.6,6 15.6,5.4 L16.5,5.4 C16.5,6.5 15.8,7.2 14.8,7.2 C13.8,7.2 13.2,6.5 13.2,5.4 Z" id="Shape"></path>
                    <path d="M17.5,2.3 L18.4,2.3 L18.4,4.3 C18.4,4.7 18.4,5.1 18.4,5.6 C18.5,5.4 18.7,4.6 18.9,4.2 L19.8,2.2 L20.7,2.2 L20.7,7 L19.8,7 L19.8,5.2 C19.8,4.7 19.8,4.1 19.8,3.6 C19.8,3.8 19.5,4.7 19.3,5.1 L18.4,7 L17.5,7 L17.5,2.3 Z" id="Shape"></path>
                    <path d="M22,2.3 L22.9,2.3 L22.9,4.3 C22.9,4.7 22.9,5.1 22.9,5.6 C23,5.4 23.2,4.6 23.4,4.2 L24.3,2.2 L25.2,2.2 L25.2,7 L24.3,7 L24.3,5.2 C24.3,4.7 24.3,4.1 24.3,3.6 C24.3,3.8 24,4.7 23.8,5.1 L22.9,7 L22,7 L22,2.3 Z M22.6,0.4 L23.2,0.4 C23.2,0.7 23.4,0.9 23.7,0.9 C24,0.9 24.2,0.7 24.2,0.4 L24.8,0.4 C24.8,1.1 24.3,1.5 23.7,1.5 C23,1.5 22.6,1.1 22.6,0.4 Z" id="Shape"></path>
                    <path d="M26.4,5.4 L26.4,3.9 C26.4,2.8 27,2.1 28,2.1 C29.1,2.1 29.7,2.7 29.7,3.9 L28.8,3.9 C28.8,3.3 28.5,3 28,3 C27.5,3 27.3,3.3 27.3,3.9 L27.3,5.4 C27.3,6 27.6,6.3 28,6.3 C28.5,6.3 28.8,6 28.8,5.4 L29.7,5.4 C29.7,6.5 29,7.2 28,7.2 C27.1,7.2 26.4,6.5 26.4,5.4 Z" id="Shape"></path>
                    <polygon id="Shape" points="32 5 31.7 5.3 31.7 7 30.8 7 30.8 2.2 31.7 2.2 31.7 4.2 32.3 3.3 33.1 2.1 34.2 2.1 32.7 4.2 34.4 7 33.4 7"></polygon>
                    <path d="M35,2.3 L35.9,2.3 L35.9,4.3 C35.9,4.7 35.9,5.1 35.9,5.6 C36,5.4 36.2,4.6 36.4,4.2 L37.3,2.2 L38.2,2.2 L38.2,7 L37.3,7 L37.3,5.2 C37.3,4.7 37.3,4.1 37.3,3.6 C37.3,3.8 37,4.7 36.8,5.1 L35.9,7 L35,7 L35,2.3 Z" id="Shape"></path>
                    <path d="M39.5,2.3 L40.4,2.3 L40.4,4.3 C40.4,4.7 40.4,5.1 40.4,5.6 C40.5,5.4 40.7,4.6 40.9,4.2 L41.8,2.2 L42.7,2.2 L42.7,7 L41.8,7 L41.8,5.2 C41.8,4.7 41.8,4.1 41.8,3.6 C41.8,3.8 41.5,4.7 41.3,5.1 L40.4,7 L39.5,7 L39.5,2.3 Z M40,0.4 L40.6,0.4 C40.6,0.7 40.8,0.9 41.1,0.9 C41.4,0.9 41.6,0.7 41.6,0.4 L42.2,0.4 C42.2,1.1 41.7,1.5 41.1,1.5 C40.5,1.5 40.1,1.1 40,0.4 Z" id="Shape"></path>
                    <polygon id="Shape" points="1.5 15 1.1 15.6 1.1 17.8 0.2 17.8 0.2 11.4 1.1 11.4 1.1 14.2 1.5 13.5 2.8 11.5 3.9 11.5 2.1 14.3 4.2 17.9 3 17.9"></polygon>
                    <path d="M7.9,16.4 C7.9,17.3 7.3,17.8 6.2,17.8 L4.7,17.8 L4.7,13 L6.1,13 C7.1,13 7.6,13.5 7.6,14.3 C7.6,14.6 7.4,15 7.1,15.2 C7.7,15.4 7.9,15.9 7.9,16.4 Z M5.5,14.9 L6,14.9 C6.4,14.9 6.7,14.7 6.7,14.3 C6.7,13.9 6.5,13.7 6,13.7 L5.5,13.7 L5.5,14.9 Z M7,16.3 C7,15.9 6.8,15.6 6.2,15.6 L5.5,15.6 L5.5,17 L6.2,17 C6.8,17 7,16.8 7,16.3 Z" id="Shape"></path>
                    <path d="M11.9,14.6 L11.9,17.8 L11.2,17.8 L11.1,17.3 C10.9,17.6 10.6,17.9 10,17.9 C9.1,17.9 8.5,17.3 8.5,16.4 C8.5,15.4 9.2,14.9 10.2,14.9 L10.9,14.9 L10.9,14.6 C10.9,14 10.7,13.7 10.2,13.7 C9.8,13.7 9.5,13.9 9.5,14.3 L8.6,14.3 C8.6,13.4 9.3,12.8 10.2,12.8 C11.4,12.8 11.9,13.5 11.9,14.6 Z M11.1,15.6 L10.4,15.6 C9.9,15.6 9.5,15.9 9.5,16.3 C9.5,16.7 9.8,17 10.3,17 C10.8,17 11.1,16.7 11.1,16.2 L11.1,15.6 Z" id="Shape"></path>
                    <polygon id="Shape" points="16.3 12.9 16.3 17.7 15.4 17.7 15.4 15.6 14.1 15.6 14.1 17.7 13.2 17.7 13.2 12.9 14.1 12.9 14.1 14.8 15.4 14.8 15.4 12.9"></polygon>
                    <polygon id="Shape" points="20.3 13.8 19.2 13.8 19.2 17.8 18.3 17.8 18.3 13.8 17.2 13.8 17.2 13 20.3 13"></polygon>
                    <path d="M20.9,16 L20.9,14.6 C20.9,13.4 21.5,12.8 22.6,12.8 C23.7,12.8 24.3,13.4 24.3,14.6 L24.3,16 C24.3,17.2 23.7,17.8 22.6,17.8 C21.5,17.9 20.9,17.2 20.9,16 Z M23.4,16 L23.4,14.6 C23.4,13.9 23.1,13.6 22.6,13.6 C22.1,13.6 21.8,13.9 21.8,14.6 L21.8,16 C21.8,16.7 22.1,17 22.6,17 C23.1,17 23.4,16.7 23.4,16 Z" id="Shape"></path>
                    <path d="M28.6,16.4 C28.6,17.3 28,17.8 26.9,17.8 L25.4,17.8 L25.4,13 L26.8,13 C27.8,13 28.3,13.5 28.3,14.3 C28.3,14.6 28.1,15 27.8,15.2 C28.4,15.4 28.6,15.9 28.6,16.4 Z M26.3,14.9 L26.8,14.9 C27.2,14.9 27.5,14.7 27.5,14.3 C27.5,13.9 27.3,13.7 26.8,13.7 L26.3,13.7 L26.3,14.9 Z M27.8,16.3 C27.8,15.9 27.6,15.6 27,15.6 L26.3,15.6 L26.3,17 L27,17 C27.5,17 27.8,16.8 27.8,16.3 Z" id="Shape"></path>
                    <path d="M32.8,16.2 C32.8,17.1 32.1,17.8 31.2,17.8 L29.6,17.8 L29.6,13 L30.5,13 L30.5,14.7 L31.3,14.7 C32.2,14.6 32.8,15.2 32.8,16.2 Z M31.9,16.2 C31.9,15.7 31.6,15.5 31.1,15.5 L30.4,15.5 L30.4,17 L31.1,17 C31.6,17 31.9,16.7 31.9,16.2 Z M34.3,13 L34.3,17.8 L33.4,17.8 L33.4,13 L34.3,13 Z" id="Shape"></path>
                    <path d="M35.6,12.9 L36.5,12.9 L36.5,14.9 C36.5,15.3 36.5,15.7 36.5,16.2 C36.6,16 36.8,15.2 37,14.8 L37.9,12.8 L38.8,12.8 L38.8,17.6 L38,17.6 L38,15.8 C38,15.3 38,14.7 38,14.2 C38,14.4 37.7,15.3 37.5,15.7 L36.6,17.6 L35.7,17.6 L35.7,12.9 L35.6,12.9 Z M36.1,11.1 L36.7,11.1 C36.7,11.4 36.9,11.6 37.2,11.6 C37.5,11.6 37.7,11.4 37.7,11.1 L38.3,11.1 C38.3,11.8 37.8,12.2 37.2,12.2 C36.6,12.2 36.1,11.8 36.1,11.1 Z" id="Shape"></path>
                    <polygon id="Shape" points="3.4 28.4 0.1 28.4 0.1 22 1 22 1 27.5 2.8 27.5 2.8 22 3.7 22 3.7 27.5 4.3 27.5 4.3 29.4 3.4 29.4"></polygon>
                    <path d="M8.5,26.9 C8.4,27.9 7.8,28.5 6.8,28.5 C5.8,28.5 5.2,27.8 5.2,26.7 L5.2,25.3 C5.2,24.2 5.8,23.5 6.9,23.5 C7.9,23.5 8.6,24.1 8.6,25.3 L8.6,26.4 L6,26.4 L6,26.8 C6,27.5 6.3,27.8 6.8,27.8 C7.3,27.8 7.5,27.6 7.6,27 L8.5,27 L8.5,26.9 Z M6,25.3 L6,25.7 L7.6,25.7 L7.6,25.3 C7.6,24.6 7.3,24.3 6.8,24.3 C6.3,24.3 6,24.6 6,25.3 Z" id="Shape"></path>
                    <polygon id="Shape" points="12.7 23.6 12.7 28.4 11.8 28.4 11.8 26.3 10.5 26.3 10.5 28.4 9.6 28.4 9.6 23.6 10.5 23.6 10.5 25.5 11.8 25.5 11.8 23.6"></polygon>
                    <polygon id="Shape" points="16.7 24.4 15.6 24.4 15.6 28.4 14.7 28.4 14.7 24.4 13.6 24.4 13.6 23.6 16.7 23.6"></polygon>
                    <path d="M20.8,25.4 L20.8,26.7 C20.8,27.9 20.2,28.5 19.3,28.5 C19,28.5 18.6,28.4 18.4,28.1 L18.4,30 L17.5,30 L17.5,23.5 L18.1,23.5 L18.2,23.9 C18.4,23.6 18.9,23.4 19.3,23.4 C20.2,23.5 20.8,24.2 20.8,25.4 Z M19.9,25.4 C19.9,24.7 19.6,24.4 19.1,24.4 C18.6,24.4 18.3,24.7 18.3,25.4 L18.3,26.7 C18.3,27.3 18.6,27.7 19.1,27.7 C19.6,27.7 19.9,27.4 19.9,26.7 L19.9,25.4 Z" id="Shape"></path>
                </g>
                <rect id="Rectangle-path" fill="#7FD2FF" x="117.2" y="6" width="2.5" height="37.7"></rect>
                <g id="Group" fill="#7FD2FF">
                    <path d="M0.3,33.9 L0.3,28.3 L27.9,44.2 L27.9,55 L4.6,41.5 C1.9,39.9 0.3,37 0.3,33.9 Z" id="Shape"></path>
                    <polygon id="Shape" points="10.8 15.2 27.9 5.4 18.7 0 10.8 4.6"></polygon>
                    <polygon id="Shape" points="26.6 34.4 20.1 38.2 26.6 42"></polygon>
                    <polygon id="Shape" points="9.5 32.2 9.5 5.4 0.3 10.7 0.3 26.9"></polygon>
                    <path d="M27.9,17.5 L27.9,44.2 L32.8,41.4 C35.5,39.8 37.2,37 37.2,33.8 L37.2,22.8 L27.9,17.5 Z" id="Shape"></path>
                    <polygon id="Shape" points="20.1 11.4 37.1 21.3 37.1 10.7 29.2 6.1"></polygon>
                </g>
            </g>
        </g>
    </g>
</svg>
